X: 75
T: Znaczny jest Bóg w żydowskiej krainie,
C: Mikołaj Gomółka
%%abc-version 2.0
%%abcx-abcm2ps-target-version 5.9.1 (29 Sep 2008)
%%abc-creator hum2abc beta
%%abcx-conversion-date 2021/10/04 07:59:09
%%abc-edited-by Anna Matuszewska
%%abcx-initial-encoding-date 2020-02-14
%%humdrum-veritas 513899052
%%humdrum-veritas-data 1312879386
%%linebreak <none>
%%barnumbers 0
L: 1/4
M: 4/2
N: Derived from pl-wn--sd-xvi-qu-273--076_gomolka-mikolaj--znaczny-jest-bog-w-zydowskiej-krainie.krn
%%staves [1 2 3 4]
V: 1 clef=treble
V: 2
V: 3 clef=alto
V: 4 clef=tenor
K: C
[V:1] A4c2d2 [|] 
[V:2] E4A2A2 [|] 
[V:3] A,4E2F2 [|] 
[V:4] A,4A,2D,2 [|] 
[V:1] c4f2f2 [|] 
[V:2] A2>B2c2c2 [|] 
[V:3] E4A2A2 [|] 
[V:4] A,4F,2F,2 [|] 
[V:1] e2d4c2 [|] 
[V:2] _B2B2A3G [|] 
[V:3] G2>F2E4 [|] 
[V:4] G,2G,2A,4 [|] 
[V:1] d4 :||:  
[V:2] ^F4 :||:  
[V:3] D4 :||:  
[V:4] D,4 :||:  
[V:1] d4 [I:setbarnb 5][|] 
[V:2] A4 [|] 
[V:3] F4 [|] 
[V:4] D4 [|] 
[V:1] d2>d2f2f2 [|] 
[V:2] B2>B2c2c2 [|] 
[V:3] F2>F2A2A2 [|] 
[V:4] _B,2>B,2F,2F2 [|] 
[V:1] e2dcBAe3/d/ [|] 
[V:2] c2BAGcB2 [|] 
[V:3] E2F2GA2G [|] 
[V:4] C2D2E2E,2 [|] 
[V:1] ^c2d2g2g2 [|] 
[V:2] c2A2B2G2 [|] 
[V:3] A2F2D3E [|] 
[V:4] A,2D2G,2G,2 [|] 
[V:1] d4e3d [|] 
[V:2] A2FGABc2 [|] 
[V:3] FGA2E4 [|] 
[V:4] D2D,2A,G,A,B, [|] 
[V:1] c2B2>A2A4 [|] 
[V:2] G2>F2E2F2 [|] 
[V:3] E2D2C2F2 [|] 
[V:4] C2G,2A,2F,2 [|] 
[V:1] ^G2A2 [|] 
[V:2] GFEDE2 [|] 
[V:3] C2B,2A,2 [|] 
[V:4] E,4A,2 [|] 
[V:1] f2 [I:setbarnb 11][|] 
[V:2] c2 [|] 
[V:3] A2 [|] 
[V:4] F,2 [|] 
[V:1] f2e2d2d2 [|] 
[V:2] c2>B2AGAB [|] 
[V:3] A2G2F2F2 [|] 
[V:4] F,2C,2D,E,F,G, [|] 
[V:1] c2e2>d2d4 [|] 
[V:2] c2>B2A2A2 [|] 
[V:3] E2E2F2F2 [|] 
[V:4] A,B,C2D2D,2 [|] 
[V:1] c2d4 [|] 
[V:2] A2>G2F4 [|] 
[V:3] E4D4 [|] 
[V:4] A,4D,4 [|] 
[V:1] d8 [|] 
[V:2] E8 [|] 
[V:3] B,8 [|] 
[V:4] D,8 [|] 


